packages/ui-solid/icons/group_28.svg

<svg width="28" height="28" viewBox="0 0 28 28" fill="none" xmlns="http://www.w3.org/2000/svg">
<path fill-rule="evenodd" clip-rule="evenodd" d="M9.33289 5.83395C7.69038 5.83395 6.32445 7.20153 6.32445 8.93147C6.32445 10.6614 7.69038 12.029 9.33289 12.029C10.9754 12.029 12.3413 10.6614 12.3413 8.93147C12.3413 7.20153 10.9754 5.83395 9.33289 5.83395ZM4.52445 8.93147C4.52445 6.24587 6.65825 4.03395 9.33289 4.03395C12.0075 4.03395 14.1413 6.24587 14.1413 8.93147C14.1413 11.6171 12.0075 13.829 9.33289 13.829C6.65825 13.829 4.52445 11.6171 4.52445 8.93147ZM18.9538 9.16361C17.9746 9.16361 17.1444 9.98261 17.1444 11.0383C17.1444 12.0941 17.9746 12.913 18.9538 12.913C19.9329 12.913 20.7631 12.0941 20.7631 11.0383C20.7631 9.98261 19.9329 9.16361 18.9538 9.16361ZM15.3444 11.0383C15.3444 9.02919 16.9403 7.36361 18.9538 7.36361C20.9673 7.36361 22.5631 9.02919 22.5631 11.0383C22.5631 13.0475 20.9673 14.713 18.9538 14.713C16.9403 14.713 15.3444 13.0475 15.3444 11.0383ZM4.28832 20.2304C3.32911 21.1158 2.96107 22.158 2.90029 22.7797C2.85192 23.2744 2.41168 23.6362 1.91698 23.5879C1.42228 23.5395 1.06046 23.0993 1.10883 22.6046C1.21089 21.5606 1.77111 20.1044 3.0674 18.9078C4.38349 17.6929 6.4027 16.7952 9.33289 16.7952C12.2631 16.7952 14.2823 17.6929 15.5984 18.9078C16.8947 20.1044 17.4549 21.5606 17.557 22.6046C17.6053 23.0993 17.2435 23.5395 16.7488 23.5879C16.2541 23.6362 15.8139 23.2744 15.7655 22.7797C15.7047 22.158 15.3367 21.1158 14.3775 20.2304C13.4381 19.3632 11.8745 18.5952 9.33289 18.5952C6.79126 18.5952 5.22773 19.3632 4.28832 20.2304ZM17.7697 17.6952C17.7697 17.1982 18.1727 16.7952 18.6697 16.7952C21.5999 16.7952 23.6191 17.6929 24.9352 18.9078C26.2315 20.1044 26.7917 21.5606 26.8938 22.6046C26.9422 23.0993 26.5804 23.5395 26.0857 23.5879C25.591 23.6362 25.1507 23.2744 25.1024 22.7797C25.0416 22.158 24.6735 21.1158 23.7143 20.2304C22.7749 19.3632 21.2114 18.5952 18.6697 18.5952C18.1727 18.5952 17.7697 18.1923 17.7697 17.6952Z" fill="#007AFF"/>
</svg>

<svg xmlns="http://www.w3.org/2000/svg" width="28" height="28" fill="none"><path fill="currentColor" fill-rule="evenodd" d="M9.333 5.834c-1.643 0-3.009 1.368-3.009 3.097 0 1.73 1.366 3.098 3.009 3.098s3.008-1.368 3.008-3.098-1.366-3.097-3.008-3.097M4.524 8.93c0-2.685 2.134-4.897 4.809-4.897S14.14 6.246 14.14 8.93s-2.133 4.898-4.808 4.898-4.809-2.212-4.809-4.898m14.43.233c-.98 0-1.81.819-1.81 1.874s.83 1.875 1.81 1.875c.979 0 1.81-.819 1.81-1.875 0-1.055-.831-1.874-1.81-1.874m-3.61 1.874c0-2.009 1.596-3.674 3.61-3.674s3.61 1.665 3.61 3.674-1.597 3.675-3.61 3.675-3.61-1.665-3.61-3.675M4.288 20.23c-.959.886-1.327 1.928-1.388 2.55a.9.9 0 0 1-1.791-.175c.102-1.044.662-2.5 1.958-3.697 1.316-1.215 3.336-2.113 6.266-2.113s4.95.898 6.265 2.113c1.297 1.196 1.857 2.653 1.959 3.697a.9.9 0 0 1-1.791.175c-.061-.622-.43-1.664-1.389-2.55-.939-.867-2.503-1.635-5.044-1.635-2.542 0-4.105.768-5.045 1.635m13.482-2.535a.9.9 0 0 1 .9-.9c2.93 0 4.95.898 6.265 2.113 1.297 1.196 1.857 2.653 1.959 3.697a.9.9 0 1 1-1.792.175c-.06-.622-.428-1.664-1.388-2.55-.94-.867-2.503-1.635-5.044-1.635a.9.9 0 0 1-.9-.9" clip-rule="evenodd"/></svg>
